frontend/public/svg/arrows/arrow-circle-up.svg

<svg width="155" height="150" viewBox="0 0 155 150" fill="none" xmlns="http://www.w3.org/2000/svg">
<path d="M3.49703 54.1887C-3.29738 80.8931 2.65234 104.451 21.1932 124.217C21.6756 124.727 22.1679 125.238 22.6595 125.729C32.6194 135.689 45.0249 141.839 54.8542 146.118C59.0731 147.96 80.7204 150.198 86.5776 149.325C121.385 144.127 144.291 124.495 152.269 91.651C153.792 85.2173 154.551 78.6263 154.529 72.0147C154.566 56.4392 148.009 38.3321 134.485 24.7715C133.092 23.6203 131.705 22.4277 130.363 21.2719C127.454 18.7706 124.446 16.1809 121.3 13.9716C97.2641 -2.94483 72.2904 -3.04 47.0759 5.93148C24.2465 14.0484 9.58587 30.2875 3.49703 54.1887ZM47.1737 13.9276C69.2969 4.73423 91.4949 3.11176 113.146 16.8811C117.104 19.4014 127.658 27.9312 129.319 29.2124L129.426 29.2911L129.514 29.3883C137.961 38.346 147.633 54.723 147.419 71.5593C147.349 78.7581 146.374 85.9193 144.518 92.8751C139.019 112.864 125.871 127.432 104.323 137.396C82.4171 147.885 51.0021 137.282 42.6437 131.764C33.4052 125.448 25.3215 117.59 18.7457 108.534C8.43337 93.9332 6.11973 72.9467 11.6612 53.7607C14.2546 44.9024 18.7868 36.7323 24.9291 29.8426C31.0714 22.953 38.6699 17.5166 47.1737 13.9276Z" fill="black"/>
<path d="M50.2825 59.9091C51.3305 59.3371 52.3171 58.6593 53.2268 57.8862C53.4441 57.7136 53.66 57.5423 53.8779 57.3743C56.9981 54.9537 60.1166 52.5312 63.2334 50.1067C66.9088 47.2476 70.5883 44.3908 74.2716 41.5361C74.5964 41.3025 74.9402 41.0965 75.2995 40.9205C75.3822 40.8772 75.4669 40.8312 75.5561 40.7833C75.4782 42.3756 75.3993 43.9424 75.3192 45.4834C75.1289 49.2141 74.9483 52.7373 74.8112 56.313C74.5197 63.9548 74.2362 75.1164 73.9618 85.9099C73.7262 95.2043 73.5024 103.983 73.2806 110.432C73.2484 111.695 73.3381 112.959 73.5484 114.205C73.8503 116.109 74.8282 117.072 76.4547 117.072H76.4592C78.2792 117.072 79.3806 115.993 79.563 114.039C79.6138 113.493 79.6661 112.947 79.7199 112.401C79.9365 110.19 80.1603 107.902 80.1892 105.641C80.306 96.624 80.3973 83.8654 80.4859 71.5262C80.5515 61.9116 80.6171 52.8305 80.6933 45.8746C80.7119 45.3713 80.7625 44.8697 80.8449 44.3728C80.86 44.2619 80.8764 44.1471 80.8928 44.029L81.3483 44.4496C81.8897 44.9477 82.3367 45.3599 82.766 45.7892C88.8695 51.7819 95.8662 56.791 103.506 60.6375L103.74 60.7603C104.402 61.1408 105.107 61.4407 105.84 61.6536C106.275 61.7246 106.721 61.6947 107.142 61.5663C107.312 61.5289 107.482 61.4909 107.648 61.4679L107.993 61.4213L107.927 61.0793C107.891 60.8883 107.872 60.6815 107.853 60.4741C107.865 59.9589 107.717 59.4527 107.427 59.0262C106.98 58.5528 106.485 58.1276 105.95 57.7576C105.546 57.471 105.162 57.1581 104.799 56.821C101.987 54.0718 99.1816 51.3165 96.3817 48.5551C92.7522 44.9841 89.1162 41.4194 85.474 37.8607C83.9528 36.2782 82.2771 34.8516 80.4721 33.6024C77.7069 31.8191 75.4038 32.0927 72.7745 34.5087C70.2601 36.8223 67.5238 39.2541 64.4161 41.9431C62.1521 43.8999 59.8805 45.847 57.6013 47.7845C55.1453 49.8808 52.695 51.9836 50.2503 54.0926C49.2636 54.9012 48.3999 55.8493 47.6867 56.907C47.2929 57.5404 47.2397 58.9075 47.7313 59.4391C48.0801 59.7305 48.4982 59.9269 48.9452 60.0092C49.3922 60.0916 49.8528 60.0571 50.2825 59.9091Z" fill="black"/>
</svg>

<svg xmlns="http://www.w3.org/2000/svg" width="155" height="150" fill="none" viewBox="0 0 155 150"><path fill="#000" d="M3.497 54.189c-6.794 26.704-.845 50.262 17.696 70.028.483.51.975 1.021 1.467 1.512 9.96 9.96 22.365 16.11 32.194 20.389 4.22 1.842 25.866 4.08 31.724 3.207 34.807-5.198 57.713-24.83 65.691-57.674a84 84 0 0 0 2.26-19.636c.037-15.576-6.52-33.683-20.044-47.243a267 267 0 0 1-4.122-3.5c-2.909-2.501-5.917-5.091-9.063-7.3C97.264-2.945 72.29-3.04 47.076 5.932c-22.83 8.116-37.49 24.356-43.579 48.257m43.677-40.261c22.123-9.194 44.32-10.816 65.972 2.953 3.958 2.52 14.512 11.05 16.173 12.331l.107.08.088.096c8.447 8.958 18.119 25.335 17.905 42.171a86 86 0 0 1-2.901 21.316c-5.499 19.989-18.647 34.557-40.195 44.521-21.906 10.489-53.32-.114-61.68-5.632a97.6 97.6 0 0 1-23.897-23.23C8.433 93.934 6.12 72.947 11.66 53.761a62.2 62.2 0 0 1 35.513-39.833"/><path fill="#000" d="M50.283 59.91a17.5 17.5 0 0 0 2.944-2.024q.325-.259.65-.512 4.682-3.63 9.356-7.267 5.514-4.29 11.039-8.57a7 7 0 0 1 1.027-.617l.257-.137q-.117 2.39-.237 4.7c-.19 3.731-.37 7.254-.508 10.83-.291 7.642-.575 18.803-.85 29.597-.235 9.294-.459 18.073-.68 24.522a19.7 19.7 0 0 0 .267 3.773c.302 1.904 1.28 2.867 2.907 2.867h.004c1.82 0 2.922-1.079 3.104-3.033q.075-.819.157-1.638c.216-2.211.44-4.499.47-6.76.116-9.017.207-21.776.296-34.115.066-9.614.131-18.695.207-25.651q.029-.756.152-1.502l.048-.344.455.42c.542.499.989.91 1.418 1.34a82.7 82.7 0 0 0 20.74 14.849l.234.122c.662.38 1.367.68 2.1.894.435.07.881.04 1.302-.088.17-.037.34-.075.506-.098l.345-.047-.066-.342a7 7 0 0 1-.074-.605 2.47 2.47 0 0 0-.426-1.448 9.3 9.3 0 0 0-1.477-1.268q-.606-.431-1.151-.937a2700 2700 0 0 1-8.417-8.266Q90.937 43.2 85.474 37.861a33 33 0 0 0-5.002-4.259c-2.765-1.783-5.068-1.51-7.697.907a366 366 0 0 1-8.359 7.434 1094 1094 0 0 1-6.815 5.842q-3.684 3.144-7.35 6.308a13.1 13.1 0 0 0-2.564 2.814c-.394.633-.447 2 .044 2.532a2.64 2.64 0 0 0 2.551.47"/></svg>
